X:1
T:Chorando Pra Pixinguinha
%%score ( 1 2 3 )
L:1/8
M:4/4
K:C
V:1 treble nm="Guitar"
V:2 treble 
V:3 treble 
V:1
 !0!A,8 | x8 | x8 | x8 | (!0!A,8 | A,3) z B,!0!A,!3!G,!2!^F, | !1!=F,6 F,2 | !0!E,4 E, z z2 | %8
w: ||||||||
S z2 !1!c(!1!e e)!1!a!1!e!1!c | A,8 | !1!=f(!0!D!2!A)!1!c !1!f!1!c!1!f(!0!e | e4) x4 | !0!A,8 | %13
w: |||||
 !0!A,8 | !1!E4 E3 z | !0!D4 !3!F4 | (f!0!e)!4!d!0!B !1!^G(!2!E!0!D)!2!B, | %17
w: ||||
 !0!D!2!E!1!^G!0!B !4!d!0!e(!1!f!0!e) ||O !4!d!2!B,!3!F!1!^G !4!d!1!^G!4!d!1!c- | %19
w: ||
 c!2!E!0!G!1!c z !-(!!4!g2 !-)!c'- | !4!c'!1!b!4!a!1!^f !2!^d!3!B!1!A!3!^F | %21
w: ||
 !1!A!3!B!2!^d!1!^f !4!a!1!b(!2!c'!1!b) | !4!a!1!F!3!B!2!d !4!a!1!d!4!a(^g | %23
w: ||
 !4!^g)!3!B!1!d!4!g z !2!^a a2 | !0!A,8 | x8 | D4 x4 | z4 D4 | z !1!b!4!a!1!^f !2!^d!3!B!1!A!3!^F | %29
w: ||||||
 !1!A!3!B!2!^d!1!^f !4!a!1!b(!2!c'!1!b) | !2!a!4!b!1!^gb !3!fb!2!eb |S !3!db!1!Bb z !4!c'2 !3!b || %32
w: |||
O (!1!fe)!4!de !1!ceBe | !2!AeGe !3!Fe!2!Ee | !1!^D !3!A2 !2!c !4!^fcA!0!=D- | %35
w: |||
 D !1!^G2 B !2!fB!1!^G!2!A- | A!1!c!>(!!2!AA, CAcC!>)! | !2!B,!3!A!4!cB, E,8 !1!!4!!0![^Gde]8 | %38
w: |||
 !arpeggio!!2!!3!!1![A,EAce]8 |] %39
w: A|
V:2
 z !4!B!1!d!4!B !0!e!4!B!1!d!4!B | x8 | x8 | x8 | z !1!f!0!e!3!d !1!c!0!B!2!A!0!G | x8 | %6
 z2 !0!!2!!3![DAd]2 [DAd]2 z2 | z2 !1![^GBe]2 z !4!c'2 (!3!b | !0!A,4) (A,4 | %9
 !0!B)!2!A!1!^G!2!A !1!c!0!e!4!g!2!^f | z D (D2 D4) | !0!E,4 E,4 | %12
 z !2!^c!1!=c!2!^c !0!e!4!g !4!^a2 | z !3!=a!2!^g!3!a !0!e!4!a !4!=g2 | %14
 z !3!^A!2!^c(!4!g g)^A^c(!1!f | f)!2!A!4!d(!1!f f)!1!f!2!A!1!f | !0!E,8 | x8 || x8 | !0!A,4 A,4 | %20
 B,4 x4 | x8 | x8 | !1!E4 !0!E,4 | z !1!a!4!g!1!e !2!^c!3!A!1!G!3!E | %25
 !1!^C!3!E!1!G!3!A !2!^c!1!e!4!g!1!a | (!2!^a!1!=a)!2!f!1!a !2!f!1!a!2!f!4!d | %27
 !3!A!4!d!2!f!1!a z !2!c'2 c' | B,8 | x8 | E,8 | z4 !3!_A z z2 || A,8 | x8 | x8 | x8 | A,3 z x4 | %37
 x20 | x8 |] %39
V:3
 x8 | x8 | x8 | x8 | x8 | !3!F!2!E!0!D!2!!3!C x4 | x8 | x8 | b4 x4 | x8 | x8 | %11
 z !0!D!1!^G!0!B z !4!d d2 | x8 | x8 | x8 | x8 | x8 | x8 || x8 | x8 | x8 | x8 | x8 | x8 | x8 | x8 | %26
 x8 | x8 | x8 | x8 | x8 | x8 || x8 | x8 | x8 | x8 | x8 | x20 | x8 |] %39

